#N cube
#C A rectangle with all cells alive.
x = 163, y = 153, rule = B3/S23
163o$163o$163o$163o$163o$163o$163o$163o$163o$163o$163o$163o$163o$163o$
163o$163o$163o$163o$163o$163o$163o$163o$163o$163o$163o$163o$163o$163o$
163o$163o$163o$163o$163o$163o$163o$163o$163o$163o$163o$163o$163o$163o$
163o$163o$163o$163o$163o$163o$163o$163o$163o$163o$163o$163o$163o$163o$
163o$163o$163o$163o$163o$163o$163o$163o$163o$163o$163o$163o$163o$163o$
163o$163o$163o$163o$163o$163o$163o$163o$163o$163o$163o$163o$163o$163o$
163o$163o$163o$163o$163o$163o$163o$163o$163o$163o$163o$163o$163o$163o$
163o$163o$163o$163o$163o$163o$163o$163o$163o$163o$163o$163o$163o$163o$
163o$163o$163o$163o$163o$163o$163o$163o$163o$163o$163o$163o$163o$163o$
163o$163o$163o$163o$163o$163o$163o$163o$163o$163o$163o$163o$163o$163o$
163o$163o$163o$163o$163o$163o$163o$163o$163o$163o$163o$163o$163o!
