#N fractal
x = 83, y = 83, rule = B3/S23
52bobobobobobobobobobobobobobobobo$53bo3bo3bo3bo3bo3bo3bo3bo$54bobobo
3bobobo3bobobo3bobobo$55bo7bo7bo7bo$56bobobobobobo5bobobobobobo$57bo3b
o3bo7bo3bo3bo$58bobobo3bo7bobobo3bo$59bo15bo$60bobobobobobobobobobobob
o$61bo3bo3bo3bo3bo3bo$62bobobo3bobobo3bobobo$63bo7bo7bo$64bobobobobobo
5bobo$65bo3bo3bo7bo$66bobobo3bo7bo$67bo$68bobobobobobobobo$69bo3bo3bo
3bo$70bobobo3bobobo$71bo7bo$72bobobobobobo$73bo3bo3bo$74bobobo3bo$75bo
$76bobobobo$77bo3bo$78bobobo$79bo$80bobo$81bo$82bo10$28bobobobobobobob
o$29bo3bo3bo3bo$30bobobo3bobobo$31bo7bo$32bobobobobobo$33bo3bo3bo$34bo
bobo3bo$35bo$36bobobobo$37bo3bo$38bobobo$39bo$40bobo$41bo$42bo6$16bobo
bobo$17bo3bo$18bobobo$19bo$20bobo$21bo$22bo14$obo$bo$2bo!
